X: 05057
T: MAUREEN'S REEL
C: Bob McQuillen 17 Aug'80
B: Bob's Note Book 5 #57
%R: reel
Z: 2021 John Chambers <jc:trillian.mit.edu>
M: C
L: 1/8
K: D	% and Bm
AA \
| d2cd e2de | f2 d4 g2 | fefg afdf | efec A2fe | d2cd e2de | f2 d4 g2 | fefg a2b2 | e6 a2 |
| bagf efgb | a2ag f2a2 | bagf efed | cdec A2AA | d2cd e2fg | f2d2 abag | fagf e3d | d6 |]
K: Bm
[| F2 \
| B2AB c2Bc | dedc B2de | f2fd edfe | d2B2 B2F2 | B2AB c2Bc | d2 B4 e2 | fgfe d2b2 | f6 a2 |
| b2ab afef | d2B2 B2f2 | gfed efgb | a2f2 f2fa | b2ab a2f2 | dfdB A2FA | F2Bd cBA2 | B6 |]
%%begintext align
%% Maureen Kennedy has held a special
%% place in my heart for years, and last night, at the Fitzwilliam
%% Dance, I promised her a tune of her own; so here it is, Maureen,
%% with much love from "Uncle Bob" --
%%endtext

%%sep 1 1 500

%%sep 1 1 500

